projects/js-packages/social-logos/src/svg/google-plus.svg

<svg enable-background="new 0 0 24 24" viewBox="0 0 24 24" xmlns="http://www.w3.org/2000/svg"><path d="m12 2c-5.523 0-10 4.477-10 10s4.477 10 10 10 10-4.477 10-10-4.477-10-10-10zm-1.919 14.05c-2.236 0-4.05-1.814-4.05-4.05s1.814-4.05 4.05-4.05c1.094 0 2.009.401 2.709 1.057l-1.15 1.118c-.292-.275-.802-.599-1.559-.599-1.341 0-2.434 1.114-2.434 2.479s1.094 2.479 2.434 2.479c1.551 0 2.122-1.073 2.227-1.709h-2.232v-.004-1.507h3.791c.057.255.101.494.101.83.001 2.312-1.55 3.956-3.887 3.956zm8.919-3.3h-1.25v1.25h-1.5v-1.25h-1.25v-1.5h1.25v-1.25h1.5v1.25h1.25z"/></svg>

<?xml version="1.0" encoding="iso-8859-1"?>
<!-- Generator: Adobe Illustrator 19.2.1, SVG Export Plug-In . SVG Version: 6.00 Build 0)  -->
<svg version="1.1" xmlns="http://www.w3.org/2000/svg" xmlns:xlink="http://www.w3.org/1999/xlink" x="0px" y="0px"
	 viewBox="0 0 24 24" style="enable-background:new 0 0 24 24;" xml:space="preserve">
<g id="google-plus">
	<path d="M12,2C6.477,2,2,6.477,2,12s4.477,10,10,10s10-4.477,10-10S17.523,2,12,2z M10.081,16.05c-2.236,0-4.05-1.814-4.05-4.05
		s1.814-4.05,4.05-4.05c1.094,0,2.009,0.401,2.709,1.057l-1.15,1.118c-0.292-0.275-0.802-0.599-1.559-0.599
		c-1.341,0-2.434,1.114-2.434,2.479c0,1.365,1.094,2.479,2.434,2.479c1.551,0,2.122-1.073,2.227-1.709h-2.232v-0.004v-1.507h3.791
		c0.057,0.255,0.101,0.494,0.101,0.83C13.969,14.406,12.418,16.05,10.081,16.05z M19,12.75h-1.25V14h-1.5v-1.25H15v-1.5h1.25V10h1.5
		v1.25H19V12.75z"/>
</g>
<g id="Layer_1">
</g>
</svg>
